svgs/duotone/book-medical.svg

<svg xmlns="http://www.w3.org/2000/svg" viewBox="0 0 448 512"><!--! Font Awesome Pro 6.6.0 by @fontawesome - https://fontawesome.com License - https://fontawesome.com/license (Commercial License) Copyright 2024 Fonticons, Inc. --><path class="fa-secondary" style="fill:var(--fa-secondary-color,inherit);opacity:var(--fa-secondary-opacity,.4);" d="M64 416c0-17.7 14.3-32 32-32l160 0 96 0 64 0 0 64-64 0-96 0L96 448c-17.7 0-32-14.3-32-32z"/><path class="fa-primary" style="fill:var(--fa-primary-color,inherit);opacity:var(--fa-primary-opacity,1);" d="M96 0C43 0 0 43 0 96L0 416c0 53 43 96 96 96l288 0 32 0c17.7 0 32-14.3 32-32s-14.3-32-32-32l-64 0-96 0L96 448c-17.7 0-32-14.3-32-32s14.3-32 32-32l160 0 96 0 64 0c17.7 0 32-14.3 32-32l0-320c0-17.7-14.3-32-32-32L384 0 96 0zM208 112c0-8.8 7.2-16 16-16l32 0c8.8 0 16 7.2 16 16l0 48 48 0c8.8 0 16 7.2 16 16l0 32c0 8.8-7.2 16-16 16l-48 0 0 48c0 8.8-7.2 16-16 16l-32 0c-8.8 0-16-7.2-16-16l0-48-48 0c-8.8 0-16-7.2-16-16l0-32c0-8.8 7.2-16 16-16l48 0 0-48z"/></svg>

<svg xmlns="http://www.w3.org/2000/svg" viewBox="0 0 448 512"><!--! Font Awesome Pro 6.4.2 by @fontawesome - https://fontawesome.com License - https://fontawesome.com/license (Commercial License) Copyright 2023 Fonticons, Inc. --><path class="fa-primary" style="fill:var(--fa-primary-color,inherit);opacity:var(--fa-primary-opacity,1);" d="M96 0C43 0 0 43 0 96V416c0 53 43 96 96 96H384h32c17.7 0 32-14.3 32-32s-14.3-32-32-32H352 256 96c-17.7 0-32-14.3-32-32s14.3-32 32-32H256h96 64c17.7 0 32-14.3 32-32V32c0-17.7-14.3-32-32-32H384 96zM208 112c0-8.8 7.2-16 16-16h32c8.8 0 16 7.2 16 16v48h48c8.8 0 16 7.2 16 16v32c0 8.8-7.2 16-16 16H272v48c0 8.8-7.2 16-16 16H224c-8.8 0-16-7.2-16-16V224H160c-8.8 0-16-7.2-16-16V176c0-8.8 7.2-16 16-16h48V112z"/><path class="fa-secondary" style="fill:var(--fa-secondary-color,inherit);opacity:var(--fa-secondary-opacity,.4);" d="M64 416c0-17.7 14.3-32 32-32H416v64H96c-17.7 0-32-14.3-32-32z"/></svg>
